X: 42301
T: Wedding Gift
R: waltz
M: 3/4
K: Dmajor
A2|D4 D>A|F<A A>B c>A|d4 c>A|B<GG2 G>B|D4 D>A|
F<AA2 B/c/A|dB G2 F2|E4 E>A|D4 D>A|F<A A>B c>A|
d4 c>A|Bdd2 B/d/B|AF D2DA|BG d2 F/A/F|E4 E2|D4DA||
f2 d2 A2|e4 cA|d4 cA|BGG3 A|f2 d2 A2|e4 cA|d>B G2 F/A/F|E4EA|
f2 d2 A2|e4 cA|d4 cA|Bdd2 B/d/B|AF D2DA|BG d2 F/A/F|E4 E/F/E|D4||

